16x16/apps/juci.svg

<svg xmlns="http://www.w3.org/2000/svg" width="16" height="16" version="1">
 <path style="fill:none" d="M 3.95e-7,2.7313562 V 11.391581 L 6.2499746,15 14.999939,9.948208 V 1.2879973"/>
 <path style="fill:none" d="M 2.45e-7,2.7313562 V 11.391581"/>
 <path style="fill:#8e8e8e;fill-rule:evenodd" d="M 0.45673685,2.7075361 3.95e-7,2.7313562 -1.7499982e-8,11.391581 6.0000244,15 V 6.2398462"/>
 <path style="fill:#17191e;fill-rule:evenodd" d="M 14.771632,1.2642481 5.9999756,6.2398747 V 14.999971 L 15,9.9482222 14.999939,1.2879973 Z"/>
 <path style="fill:#17191e" d="M 1,4.9326015 V 10.589844 L 4.9804688,12.882812 5,12.849609 V 11.740234 L 2,10.011719 V 6.6669765 l 3,1.732422 v -1.154297 z"/>
 <path style="fill:#f4f4f7" d="M 9 6.5683594 L 8 7.1289062 L 8 8.7832031 L 7 9.3613281 L 7 10.515625 L 8 9.9375 L 8 11.576172 L 9 11.015625 L 9 9.3613281 L 10 8.7832031 L 10 7.6289062 L 9 8.2070312 L 9 6.5683594 z"/>
 <path style="fill:#f4f4f7" d="m 13,4.3071874 -1,0.5605468 v 1.6542969 l -1,0.578125 V 8.254453 L 12,7.676328 V 9.315 L 13,8.754453 V 7.1001561 l 1,-0.578125 V 5.3677342 l -1,0.578125 z"/>
 <path style="fill:#736fff;fill-rule:evenodd" d="M 3.33332,0.74999698 3.95e-7,2.7313562 6.000024,6.3397891 14.999939,1.2879973 13.333279,0.32574852 6.0000244,4.4152918 3.33332,2.7313562 4.9999797,1.7691075 Z"/>
</svg>

<svg xmlns="http://www.w3.org/2000/svg" width="16" height="16" version="1"><path style="fill:none" d="M0 2.731v8.66L6.25 15 15 9.948v-8.66M0 2.731v8.66"/><path style="fill:#8e8e8e;fill-rule:evenodd" d="M.457 2.708 0 2.73v8.66L6 15V6.24"/><path style="fill:#17191e;fill-rule:evenodd" d="M14.772 1.264 6 6.24V15l9-5.052v-8.66z"/><path style="fill:#17191e" d="M1 4.933v5.657l3.98 2.293.02-.033v-1.11l-3-1.728V6.667l3 1.732V7.245z"/><path style="fill:#f4f4f7" d="m9 6.568-1 .56v1.655l-1 .578v1.155l1-.579v1.64l1-.561V9.36l1-.578V7.63l-1 .578V6.568zM13 4.307l-1 .56v1.655L11 7.1v1.154l1-.578v1.639l1-.56V7.1l1-.578V5.368l-1 .578z"/><path style="fill:#736fff;fill-rule:evenodd" d="M3.333.75 0 2.731 6 6.34l9-5.052-1.667-.962L6 4.416 3.333 2.73 5 1.77z"/></svg>
